static/cards/FrenchDeck/cyberwave/card_diamonds_02.svg

<svg xmlns="http://www.w3.org/2000/svg" width="822" height="1122" fill="none" viewBox="0 0 822 1122"><rect width="822" height="1122" fill="#1a0033" rx="20"/><g fill="#b366ff" clip-path="url(#a)"><path d="M94.359 159q-2.944 0-2.944-2.944v-4.096q0-8.32 7.04-16.64t19.84-14.72q9.856-4.864 15.232-8.576 5.376-3.84 7.808-8.192 2.56-4.352 2.56-10.624 0-8.576-6.528-12.928-6.4-4.352-16.256-4.352-14.72 0-23.168 5.376-.64.384-.896.384-.512 0-.896-.768l-1.664-2.816a1.58 1.58 0 0 1-.256-.896q0-.64.896-1.152 3.84-2.688 10.752-4.352 7.04-1.665 15.232-1.664 8.32 0 14.976 2.688t10.496 7.936q3.968 5.248 3.968 12.544 0 7.552-3.2 13.056t-8.96 9.728-14.976 8.704Q111 130.84 104.599 138.008q-6.272 7.04-6.272 14.72h48.256q2.944 0 2.944 2.816v.896q0 1.408-.768 2.048-.64.512-2.176.512zM112.679 208.481c3.959-5.938 12.683-5.938 16.642 0l21.981 32.972a10 10 0 0 1 0 11.094l-21.981 32.972c-3.959 5.938-12.683 5.938-16.642 0l-21.981-32.972a10 10 0 0 1 0-11.094zM719.641 959q2.944 0 2.944 2.944v4.096q0 8.32-7.04 16.64t-19.84 14.72q-9.856 4.86-15.232 8.58-5.376 3.84-7.808 8.19-2.56 4.35-2.56 10.62 0 8.58 6.528 12.93 6.4 4.35 16.256 4.35 14.72 0 23.168-5.37.64-.39.896-.39c.341 0 .64.26.896.77l1.664 2.82c.171.25.256.55.256.89 0 .43-.299.81-.896 1.15-2.56 1.8-6.144 3.25-10.752 4.36-4.693 1.11-9.771 1.66-15.232 1.66-5.547 0-10.539-.9-14.976-2.69s-7.936-4.44-10.496-7.93c-2.645-3.5-3.968-7.68-3.968-12.55q0-7.545 3.2-13.05c2.133-3.67 5.12-6.92 8.96-9.73q5.76-4.226 14.976-8.706 12.416-6.144 18.816-13.312 6.272-7.04 6.272-14.72h-48.256q-2.944 0-2.944-2.816v-.896q0-1.408.768-2.048.64-.512 2.176-.512zM701.321 909.519c-3.959 5.938-12.683 5.938-16.642 0l-21.981-32.972a10 10 0 0 1 0-11.094l21.981-32.972c3.959-5.938 12.683-5.938 16.642 0l21.981 32.972a10 10 0 0 1 0 11.094z"/></g><path stroke="#b366ff" stroke-width="8" d="M322.008 522.699c2.375-3.562 7.609-3.562 9.984 0l21.982 32.973a6 6 0 0 1 0 6.656l-21.982 32.973c-2.375 3.562-7.609 3.562-9.984 0l-21.982-32.973a6 6 0 0 1 0-6.656zM490.008 522.699c2.375-3.562 7.609-3.562 9.984 0l21.982 32.973a6 6 0 0 1 0 6.656l-21.982 32.973c-2.375 3.562-7.609 3.562-9.984 0l-21.982-32.973a6 6 0 0 1 0-6.656z"/><defs><clipPath id="a"><path fill="#fff" d="M46 48h722v1022H46z"/></clipPath></defs></svg>

<svg width="822" height="1122" viewBox="0 0 822 1122" fill="none" xmlns="http://www.w3.org/2000/svg">
<rect width="822" height="1122" rx="20" fill="#1A0033"/>
<g clip-path="url(#clip0_30_522)">
<path d="M94.359 159C92.3963 159 91.415 158.019 91.415 156.056V151.96C91.415 146.413 93.7617 140.867 98.455 135.32C103.148 129.773 109.762 124.867 118.295 120.6C124.866 117.357 129.943 114.499 133.527 112.024C137.111 109.464 139.714 106.733 141.335 103.832C143.042 100.931 143.895 97.3893 143.895 93.208C143.895 87.4907 141.719 83.1813 137.367 80.28C133.1 77.3787 127.682 75.928 121.111 75.928C111.298 75.928 103.575 77.72 97.943 81.304C97.5163 81.56 97.2177 81.688 97.047 81.688C96.7057 81.688 96.407 81.432 96.151 80.92L94.487 78.104C94.3163 77.848 94.231 77.5493 94.231 77.208C94.231 76.7813 94.5297 76.3973 95.127 76.056C97.687 74.264 101.271 72.8133 105.879 71.704C110.572 70.5947 115.65 70.04 121.111 70.04C126.658 70.04 131.65 70.936 136.087 72.728C140.524 74.52 144.023 77.1653 146.583 80.664C149.228 84.1627 150.551 88.344 150.551 93.208C150.551 98.2427 149.484 102.595 147.351 106.264C145.218 109.933 142.231 113.176 138.391 115.992C134.551 118.808 129.559 121.709 123.415 124.696C115.138 128.792 108.866 133.229 104.599 138.008C100.418 142.701 98.327 147.608 98.327 152.728H146.583C148.546 152.728 149.527 153.667 149.527 155.544V156.44C149.527 157.379 149.271 158.061 148.759 158.488C148.332 158.829 147.607 159 146.583 159H94.359Z" fill="#B366FF"/>
<path d="M112.679 208.481C116.638 202.543 125.362 202.543 129.321 208.481L151.302 241.453C153.541 244.812 153.541 249.188 151.302 252.547L129.321 285.519C125.362 291.457 116.638 291.457 112.679 285.519L90.698 252.547C88.4587 249.188 88.4587 244.812 90.698 241.453L112.679 208.481Z" fill="#B366FF"/>
<path d="M719.641 959C721.604 959 722.585 959.981 722.585 961.944V966.04C722.585 971.587 720.238 977.133 715.545 982.68C710.852 988.227 704.238 993.133 695.705 997.4C689.134 1000.64 684.057 1003.5 680.473 1005.98C676.889 1008.54 674.286 1011.27 672.665 1014.17C670.958 1017.07 670.105 1020.61 670.105 1024.79C670.105 1030.51 672.281 1034.82 676.633 1037.72C680.9 1040.62 686.318 1042.07 692.889 1042.07C702.702 1042.07 710.425 1040.28 716.057 1036.7C716.484 1036.44 716.782 1036.31 716.953 1036.31C717.294 1036.31 717.593 1036.57 717.849 1037.08L719.513 1039.9C719.684 1040.15 719.769 1040.45 719.769 1040.79C719.769 1041.22 719.47 1041.6 718.873 1041.94C716.313 1043.74 712.729 1045.19 708.121 1046.3C703.428 1047.41 698.35 1047.96 692.889 1047.96C687.342 1047.96 682.35 1047.06 677.913 1045.27C673.476 1043.48 669.977 1040.83 667.417 1037.34C664.772 1033.84 663.449 1029.66 663.449 1024.79C663.449 1019.76 664.516 1015.41 666.649 1011.74C668.782 1008.07 671.769 1004.82 675.609 1002.01C679.449 999.192 684.441 996.291 690.585 993.304C698.862 989.208 705.134 984.771 709.401 979.992C713.582 975.299 715.673 970.392 715.673 965.272H667.417C665.454 965.272 664.473 964.333 664.473 962.456V961.56C664.473 960.621 664.729 959.939 665.241 959.512C665.668 959.171 666.393 959 667.417 959H719.641Z" fill="#B366FF"/>
<path d="M701.321 909.519C697.362 915.457 688.638 915.457 684.679 909.519L662.698 876.547C660.459 873.188 660.459 868.812 662.698 865.453L684.679 832.481C688.638 826.543 697.362 826.543 701.321 832.481L723.302 865.453C725.541 868.812 725.541 873.188 723.302 876.547L701.321 909.519Z" fill="#B366FF"/>
</g>
<path d="M322.008 522.699C324.383 519.137 329.617 519.137 331.992 522.699L353.974 555.672C355.317 557.687 355.317 560.313 353.974 562.328L331.992 595.301C329.617 598.863 324.383 598.863 322.008 595.301L300.026 562.328C298.683 560.313 298.683 557.687 300.026 555.672L322.008 522.699Z" stroke="#B366FF" stroke-width="8"/>
<path d="M490.008 522.699C492.383 519.137 497.617 519.137 499.992 522.699L521.974 555.672C523.317 557.687 523.317 560.313 521.974 562.328L499.992 595.301C497.617 598.863 492.383 598.863 490.008 595.301L468.026 562.328C466.683 560.313 466.683 557.687 468.026 555.672L490.008 522.699Z" stroke="#B366FF" stroke-width="8"/>
<defs>
<clipPath id="clip0_30_522">
<rect width="722" height="1022" fill="white" transform="translate(46 48)"/>
</clipPath>
</defs>
</svg>
